img/recevez/4.svg

<svg width="161" height="160" viewBox="0 0 161 160" fill="none" xmlns="http://www.w3.org/2000/svg">
<g id="ion:documents" clip-path="url(#clip0_314_595)">
<path id="Vector" d="M110.152 8L71.6117 31.7927L75.5182 33.8501L109.807 12.6816L167.966 44.3661L134.607 64.9601L136.232 65.8155V68.426L162.361 52.2948L167.845 55.2827L136.231 74.7987V79.2676L161.849 63.4524L167.845 66.7193L136.231 86.2353V90.7042L161.849 74.889L167.845 78.156L136.231 97.6719V102.141L175.88 77.6634L166.039 72.3029L175.88 66.2276L166.039 60.8663L175.879 54.791L166.55 49.7083L176 43.8739L110.152 8H110.152ZM122.466 25.0552C114.127 29.0793 103.02 29.7601 95.2004 26.7261L79.913 36.1636L130.212 62.6461L144.711 53.6954C139 49.3588 139.475 42.8881 145.877 37.8104L122.465 25.0552H122.466ZM70.7057 39.1386L42.6882 56.71L96.4378 86.4693L96.965 86.1453C97.9558 85.5316 99.355 84.6624 101.024 83.6244C104.362 81.5495 108.778 78.7983 113.182 76.0536C119.525 72.1005 122.793 70.061 125.832 68.1649L70.7057 39.1386ZM116.472 39.5846C116.472 39.5846 116.472 39.5846 116.473 39.5846C117.74 39.592 118.902 39.8533 119.77 40.326C120.276 40.6011 120.667 40.9405 120.923 41.3246C121.179 41.7088 121.295 42.1304 121.263 42.5651C121.231 42.9999 121.052 43.4394 120.737 43.8586C120.421 44.2778 119.976 44.6683 119.426 45.008C118.875 45.3477 118.231 45.6299 117.529 45.8385C116.828 46.047 116.083 46.1779 115.336 46.2235C114.59 46.2692 113.858 46.2288 113.181 46.1046C112.504 45.9804 111.895 45.7749 111.39 45.4998C110.371 44.9442 109.834 44.1389 109.899 43.261C109.963 42.3831 110.624 41.5045 111.735 40.8186C112.366 40.4289 113.12 40.1155 113.94 39.9019C114.76 39.6882 115.626 39.5797 116.472 39.5846ZM29.8986 57.5452L-11.8791 83.3358L-2.55012 88.4184L-12 94.2528L-2.15931 99.6137L-12 105.689L-2.15931 111.05L-12 117.126L53.8483 153L93.6043 128.456V123.988L54.1936 148.318L-3.9651 116.633L1.68493 113.145L53.8483 141.563L93.6043 117.019V112.552L54.1936 136.882L-3.9651 105.197L1.68493 101.709L53.8483 130.127L93.6043 105.583V101.115L54.1936 125.446L-3.9651 93.7607L1.29452 90.5128L53.97 119.21L93.6043 94.7412V92.8161L91.4322 91.6137L54.3137 114.528L-3.84342 82.8437L33.7151 59.6571L29.8982 57.544L29.8986 57.5452ZM38.008 62.0358L19.4111 73.5159C25.1226 77.8517 24.6469 84.3224 18.245 89.4008L41.6569 102.156C49.995 98.1316 61.1008 97.4512 68.9209 100.485L87.1393 89.2377L38.0072 62.0354L38.008 62.0358ZM129.097 74.3069C125.909 76.2957 123.097 78.0511 117.062 81.8121C113.009 84.3393 108.954 86.8646 104.898 89.3879C103.227 90.4267 101.825 91.2977 100.825 91.916C100.789 91.9389 100.774 91.9465 100.739 91.9682V124.723L129.097 106.392L129.097 74.3069ZM49.4337 80.9704C50.7015 80.978 51.8637 81.2396 52.7314 81.7126C53.7511 82.2682 54.2877 83.0735 54.223 83.9514C54.1584 84.8293 53.4978 85.7079 52.3866 86.3939C51.2754 87.0797 49.8048 87.5168 48.2981 87.609C46.7915 87.7012 45.3722 87.441 44.3525 86.8856C43.3327 86.33 42.7962 85.5247 42.8609 84.6468C42.9255 83.7689 43.5861 82.8904 44.6973 82.2044C45.3284 81.8148 46.0821 81.5015 46.9023 81.2879C47.7224 81.0743 48.5878 80.9659 49.4337 80.9708V80.9704Z" fill="#13023E"/>
</g>
<defs>
<clipPath id="clip0_314_595">
<rect width="160" height="160" fill="white" transform="translate(0.5)"/>
</clipPath>
</defs>
</svg>

<svg width="161" height="160" viewBox="0 0 161 160" fill="none" xmlns="http://www.w3.org/2000/svg"><g id="ion:documents" clip-path="url(#clip0_314_595)"><path id="Vector" d="M110.152 8l-38.54 23.793 3.906 2.057 34.289-21.168 58.159 31.684-33.359 20.594 1.625.856v2.61l26.129-16.131 5.484 2.988-31.614 19.516v4.469l25.618-15.816 5.996 3.267-31.614 19.516v4.47l25.618-15.816 5.996 3.267-31.614 19.516v4.469l39.649-24.478-9.841-5.36 9.841-6.075-9.841-5.362 9.84-6.075-9.329-5.083 9.45-5.834L110.152 8zm12.314 17.055c-8.339 4.024-19.446 4.705-27.266 1.671l-15.287 9.438 50.299 26.482 14.499-8.95c-5.711-4.337-5.236-10.808 1.166-15.886l-23.412-12.755h.001zM70.706 39.14L42.688 56.71l53.75 29.76.527-.325c.99-.613 2.39-1.483 4.059-2.52a19173.296 19173.296 0 0024.808-15.461L70.706 39.14zm45.766.446h.001c1.267.007 2.429.268 3.297.741.506.275.897.614 1.153.999.256.384.372.805.34 1.24-.032.435-.211.874-.526 1.294-.316.419-.761.81-1.311 1.149a7.939 7.939 0 01-1.897.83 9.844 9.844 0 01-2.193.386 8.981 8.981 0 01-2.155-.12 6.066 6.066 0 01-1.791-.604c-1.019-.556-1.556-1.361-1.491-2.239.064-.878.725-1.757 1.836-2.442a8.118 8.118 0 012.205-.917 9.901 9.901 0 012.532-.317zm-86.573 17.96l-41.778 25.79 9.329 5.083-9.45 5.835 9.84 5.36-9.84 6.076 9.84 5.361-9.84 6.076L53.848 153l39.756-24.544v-4.468l-39.41 24.33-58.16-31.685 5.65-3.488 52.164 28.418 39.756-24.544v-4.467l-39.41 24.33-58.16-31.685 5.65-3.488 52.164 28.418 39.756-24.544v-4.468l-39.41 24.331-58.16-31.685 5.26-3.248L53.97 119.21l39.634-24.469v-1.925l-2.172-1.202-37.118 22.914-58.157-31.684 37.558-23.187-3.817-2.113v.001zm8.109 4.49l-18.597 11.48c5.712 4.337 5.236 10.807-1.166 15.886l23.412 12.755c8.338-4.024 19.444-4.705 27.264-1.671l18.218-11.247-49.132-27.203h.001zm91.089 12.272c-3.188 1.989-6 3.744-12.035 7.505-4.053 2.527-8.108 5.053-12.164 7.576a2212.66 2212.66 0 01-4.073 2.528c-.036.023-.051.03-.086.052v32.755l28.358-18.331V74.307zM49.434 80.97c1.268.008 2.43.27 3.297.743 1.02.555 1.557 1.36 1.492 2.238-.065.878-.725 1.757-1.836 2.443-1.112.686-2.582 1.123-4.089 1.215-1.507.092-2.926-.168-3.946-.723-1.02-.556-1.556-1.361-1.491-2.24.065-.877.725-1.756 1.836-2.442a8.12 8.12 0 012.205-.916 9.902 9.902 0 012.532-.317z" fill="#13023E"/></g><defs><clipPath id="clip0_314_595"><path fill="#fff" transform="translate(.5)" d="M0 0h160v160H0z"/></clipPath></defs></svg>
